packages/kaspersky-hexa-ui-icons/src/iconsSVGs/64x42/FlagKg.svg

<svg xmlns="http://www.w3.org/2000/svg" width="64" height="42" fill="none" viewBox="0 0 64 42"><g clip-path="url(#a)"><rect width="64" height="42" fill="#fff" rx="5"/><path fill="#f22a46" d="M0 0h64v42H0z"/><circle cx="32" cy="21" r="7" fill="#fff04d"/><path fill="#fff04d" fill-rule="evenodd" d="m28.573 36.014 3.4269-5.1153 3.4268 5.1153.868-6.0956 5.3069 3.1219-1.8627-5.8685 6.1359.5101-4.2245-4.4792 5.7496-2.2026-5.7496-2.2026 4.2245-4.4792-6.1359.5101 1.8627-5.8685-5.3069 3.1219-.868-6.0956-3.4268 5.1153-3.4269-5.1153-.868 6.0956-5.3069-3.122 1.8627 5.8686-6.1359-.5101 4.2245 4.4792-5.7495 2.2026 5.7495 2.2026-4.2245 4.4792 6.1359-.5101-1.8627 5.8685 5.3069-3.1219zm3.4268-5.214c5.4124 0 9.8-4.3876 9.8-9.8s-4.3876-9.8-9.8-9.8-9.8 4.3876-9.8 9.8 4.3876 9.8 9.8 9.8" clip-rule="evenodd"/></g><defs><clipPath id="a"><rect width="64" height="42" fill="#fff" rx="5"/></clipPath></defs></svg>

<svg width="64" height="42" viewBox="0 0 64 42" fill="none" xmlns="http://www.w3.org/2000/svg">
<g clip-path="url(#clip0_37941_2277)">
<rect width="64" height="42" rx="5" fill="white"/>
<rect width="64" height="42" fill="#F22A46"/>
<circle cx="31.9999" cy="20.9999" r="7" fill="#FFF04D"/>
<path fill-rule="evenodd" clip-rule="evenodd" d="M28.573 36.014L31.9999 30.8987L35.4267 36.014L36.2947 29.9184L41.6016 33.0403L39.7389 27.1718L45.8748 27.6819L41.6503 23.2027L47.3999 21.0001L41.6503 18.7975L45.8748 14.3183L39.7389 14.8284L41.6016 8.95989L36.2947 12.0818L35.4267 5.98621L31.9999 11.1015L28.573 5.98621L27.705 12.0818L22.3981 8.95989L24.2608 14.8284L18.1249 14.3183L22.3494 18.7975L16.5999 21.0001L22.3494 23.2027L18.1249 27.6819L24.2608 27.1718L22.3981 33.0403L27.705 29.9184L28.573 36.014ZM31.9998 30.8C37.4122 30.8 41.7998 26.4124 41.7998 21C41.7998 15.5876 37.4122 11.2 31.9998 11.2C26.5874 11.2 22.1998 15.5876 22.1998 21C22.1998 26.4124 26.5874 30.8 31.9998 30.8Z" fill="#FFF04D"/>
</g>
<defs>
<clipPath id="clip0_37941_2277">
<rect width="64" height="42" rx="5" fill="white"/>
</clipPath>
</defs>
</svg>
